X:94
T:We'll All Away to Sunniside
Z:Jack Campin, http://www.campin.me.uk/
S:Northumbrian Minstrelsy
M:2/4
L:1/8
K:C
f|eccf|ecgc|ecgc|A2 ff|edcf|ecgc|BddB|G2 Bg |
  eccf|ecgc|ecgc|A2 f2|edcf|ecgc|BddB|G2 B :|
B|AcBd|cedf|ecgc|A2 c2|AcBd|cedc|BGdB|G2 B2 |
  AcBd|cedf|ecgc|A2 c2|AcBd|cedc|BGdB|G2 B2:|

